X:1
T: The McCulloch Strathspey
C:
R:Strathspey
Q: 128
K:G
M:4/4
L:1/16
|:D2|GB3 d3c1/2B1/2 AG3 g3G|A2G2 d3B Ad3 d2D2|GB3 d3c B1/2A1/2G3 g3G|Ae3 d3F G4-G2:|
|:gf|e3d e3d B1/2A1/2G3 g3G|cA3 d3c B1/2A1/2G3 g3D|E3F G3A B3c d2g2|Ae3 d3F G4-G2:|
|:D2|E3D E3F GB3 Gd3|ce3 d3c B3A G2D2|E3D E3F GB3 G3D|EG3 F3A G4 G2:|
